X:1
T:Anima mea
T:Anima mea 
T:Michaël Praetorius
C:Michaël Praetorius
%%score [ 1 2 3 ]
L:1/8
Q:1/4=120
M:4/4
K:C
V:1 treble nm="Soprano" snm="S"
V:2 treble nm="Alto" snm="A"
V:3 bass nm="Bass" snm="B"
V:1
 z8 | z8 |: A6 GF | E6 F2 | G6 FE | D8 | %6
"^a quid tri- stis    es,                      spe-ra, spe-ra,   spe-       ra   in     Do-            mi-   num,           in" D2 D2 D2 D2 | %7
 A8 | E2 E2 G2 A2 | B4 B2 B2 | d6 d2 | A6 A2 | %12
"^Do-               mi-     num,                        i-    pse  fe-ret  au-  xil-   li-    um,           i-   pse   fe- ret au-" c6 c2 | %13
 G8 | B2 B2 B2 AG | F2 F2 F4 | A2 A2 A2 GF | %17
"^xil-   li-   um,           i-     pse   fe- ret au- xil-   li    um.              xil-   li-    um." E2 E2 E4 | %18
 G2 G2 G2 FE |1 D2 D2 D4 :|2 D2 D2 D4- || D8 |] z8 | z8 | z8 | z8 | z8 | z8 | z8 | z8 | z8 |] %31
V:2
 z8 | D6 CB, |:"^A-        ni-ma me-         a,     a-          ni-ma me-" A,6 B,2 | C6 B,A, | %4
 G,8 | G,2 G,2 G,2 G,2 | D8 | A,2 A,2 C2 D2 | E4 E2 E2 | G6 G2 | D6 D2 | F6 F2 | %12
"^num,                        i-    pse   fe- ret au- xil-  li-    um,            i-    pse  fe- ret au- xil-   li-    um," C8 | %13
 E2 E2 E2 DC | B,2 B,2 B,4 | D2 D2 D2 CB, | A,2 A,2 A,4 | %17
"^i-    pse  fe- ret au- xil-   li-   um,           a-                  ni-ma.    a-                  ni-ma  me       a." C2 C2 C2 B,A, | %18
 G,2 G,2 G,4 |1 D6 CB, :|2 D6 CB, || D4 D4 |] z8 | z8 | z8 | z8 | z8 | z8 | z8 | z8 | z8 |] %31
V:3
"^A-       ni-ma  me-        a,          a-        ni-ma  me-                 a quid tri-stis   es," G,6 F,E, | %1
"^A-        ni-ma    me-      a,        a-          ni-ma me-                a quid tri-stis" D,6 E,2 |: %2
 F,6 E,D, | C,8 | C,2 C,2 C,2 C,2 | G,8 | %6
"^es,                     spe-ra, spe-ra,    spe-       ra   in     Do-            mi-   num,         in      Do-            mi-""^spe-ra, spe-ra,   spe-       ra   in     Do-            mi-   num,           in      Do-           mi-   num," D,2 D,2 F,2 G,2 | %7
 A,4 A,2 A,2 | C6 C2 | G,6 G,2 | _B,6 B,2 | F,8 | %12
"^i-    pse   fe-ret au-  xil-  li-    um,           i-     pse  fe- ret au- xil-   li-    um,           i-    pse   fe-ret au-" A,2 A,2 A,2 G,F,"^Note: original keys: Ut 2nd, Ut 4rth, Fa 4rth" | %13
 E,2 E,2 E,4 | G,2 G,2 G,2 F,E, | D,2 D,2 D,4 | F,2 F,2 F,2 E,D, | %17
"^xil-  li-    um,           a-                ni-ma   me-                a           me-                          a." C,2 C,2 C,4 | %18
 G,6 F,E, |1 D,6 E,2 :|2 D,6 E,2 || D,8 |] z8 | z8 | z8 | z8 | z8 | z8 | z8 | z8 | z8 |] %31

